src/lib/packages/icons/src/assets/filled/stop-circle.svg

<svg width="24" height="24" viewBox="0 0 24 24" fill="none" xmlns="http://www.w3.org/2000/svg">
<path d="M12 2C6.477 2 2 6.477 2 12C2 17.523 6.477 22 12 22C17.523 22 22 17.523 22 12C22 6.477 17.523 2 12 2ZM15.5 14.188C15.5 15.063 15.062 15.5 14.188 15.5H9.81299C8.93799 15.5 8.50098 15.062 8.50098 14.188V9.81299C8.50098 8.93799 8.93899 8.50098 9.81299 8.50098H14.188C15.063 8.50098 15.5 8.93899 15.5 9.81299V14.188Z" fill="currentColor"/>
</svg>

<svg xmlns="http://www.w3.org/2000/svg" width="24" height="24" fill="none"><path fill="currentColor" d="M12 2C6.477 2 2 6.477 2 12s4.477 10 10 10 10-4.477 10-10S17.523 2 12 2Zm3.5 12.188c0 .875-.438 1.312-1.312 1.312H9.813c-.875 0-1.312-.438-1.312-1.312V9.813c0-.875.438-1.312 1.312-1.312h4.375c.875 0 1.312.438 1.312 1.312v4.375Z"/></svg>
